icon-themes/breeze_svg/res/otp_48_8.svg

<svg viewBox="0 0 48 48" xmlns="http://www.w3.org/2000/svg"><path d="m6 6v27.023438l10-.023438v6l-4.015625.009766v2.992187h24.015625v-3h-4v-6l10 .023438v-27.0234379zm2.9921875 3.0859375h29.9218745v20.9453125h-29.9218745zm12.0078125 4.4140625v12l8.9375-5.941406zm-2 19.5h10v6h-10z" fill="#b3b3b3"/></svg>

<svg xmlns="http://www.w3.org/2000/svg" viewBox="0 0 48 48">
 <path 
     style="fill:#b3b3b3" 
            d="M 6 6 L 6 33.023438 L 16 33 L 16 39 L 11.984375 39.009766 L 11.984375 42.001953 L 36 42.001953 L 36 39.001953 L 32 39.001953 L 32 33.001953 L 42 33.025391 L 42 6.0019531 L 6 6 z M 8.9921875 9.0859375 L 38.914062 9.0859375 L 38.914062 30.03125 L 8.9921875 30.03125 L 8.9921875 9.0859375 z M 21 13.5 L 21 25.5 L 29.9375 19.558594 L 21 13.5 z M 19 33 L 29 33 L 29 39 L 19 39 L 19 33 z "
     />
 </svg>
